X:1
T: Gourock Bay
C:
R:Reel
Q: 232
K:A
M:4/4
L:1/8
|:ef ec ef ec|ea ga ba gf|ef ec ef ec|BA GA Bc d^d|
ef ec ef ec|ea ga ba gf|ef ec ef ec|BA GA Bc d^d|
ef ec AE Ac|BA Bc AB cd|ef ec AE Ac|BA GA Bc d^d|
ef ec AE Ac|BA Bc AB cd|ef ec AE Ac|BA Bc A2 A2:|
